**harm	**harte	**timestamp	**phrase	**leadinstrument	**kern
*M4/4	*M4/4	*	*	*	*
*A-:	*A-:	*	*	*	*A-:
1r;	N	0	.	r	1r;
1r;	N	0.041	.	r	1r;
=1	=1	=1	=1	=1	=1
*>A_intro	*>A_intro	*>A_intro	*>A_intro	*>A_intro	*>A_intro
2I	A-:maj	4.037	newline	r	2A- 2cc 2ee-
2Vf	E-:maj/4	5.132	.	r	2E- 2g 2b-
=2	=2	=2	=2	=2	=2
2IVc	D-:maj(9)/5	6.227	.	r	2d- 2f 2A-
2Vf	E-:maj/4	7.322	.	r	2E- 2g 2b-
=3	=3	=3	=3	=3	=3
2I	A-:maj	8.417	newline	r	2A- 2cc 2ee-
2Vf	E-:maj/4	9.481	.	r	2E- 2g 2b-
=4	=4	=4	=4	=4	=4
2IVc	D-:maj(9)/5	10.545	.	r	2d- 2f 2A-
2Vf	E-:maj/4	11.61	.	r	2E- 2g 2b-
=5	=5	=5	=5	=5	=5
*>B_verse	*>B_verse	*>B_verse	*>B_verse	*>B_verse	*>B_verse
2I	A-:maj	12.674	newline	voice	2A- 2cc 2ee-
2Vf	E-:maj/4	13.742	.	voice	2E- 2g 2b-
=6	=6	=6	=6	=6	=6
2IVc	D-:maj(9)/5	14.809	.	voice	2d- 2f 2A-
2Vf	E-:maj/4	15.877	.	voice	2E- 2g 2b-
=7	=7	=7	=7	=7	=7
2vi7	F:min7	16.945	newline	voice	2F 2a- 2cc 2ee-
2iii	C:min	18.062	.	voice	2C 2e- 2g
=8	=8	=8	=8	=8	=8
2IV	D-:maj	19.18	.	voice	2D- 2f 2a-
2V	E-:maj	20.297	.	voice	2E- 2g 2b-
=9	=9	=9	=9	=9	=9
2I	A-:maj	21.415	newline	voice	2A- 2cc 2ee-
2Vf	E-:maj/4	22.501	.	voice	2E- 2g 2b-
=10	=10	=10	=10	=10	=10
2IVc	D-:maj(9)/5	23.587	.	voice	2d- 2f 2A-
2Vf	E-:maj/4	24.673	.	voice	2E- 2g 2b-
=11	=11	=11	=11	=11	=11
2vi7	F:min7	25.759	newline	voice	2F 2a- 2cc 2ee-
2iii	C:min	26.865	.	voice	2C 2e- 2g
=12	=12	=12	=12	=12	=12
2IV	D-:maj	27.971	.	voice	2D- 2f 2a-
2V	E-:maj	29.077	.	voice	2E- 2g 2b-
=13	=13	=13	=13	=13	=13
2IV	D-:maj	30.183	newline	voice	2D- 2f 2a-
2V	E-:maj	31.269	.	voice	2E- 2g 2b-
=14	=14	=14	=14	=14	=14
2iii	C:min	32.355	.	voice	2C 2e- 2g
4vi7	F:min7	33.441	.	voice	4F 4a- 4cc 4ee-
4V	E-:maj	33.985	.	voice	4E- 4g 4b-
=15	=15	=15	=15	=15	=15
2IV	D-:maj	34.528	newline	voice	2D- 2f 2a-
2V	E-:maj	35.601	.	voice	2E- 2g 2b-
=16	=16	=16	=16	=16	=16
2iii	C:min	36.675	.	voice	2C 2e- 2g
4vi7	F:min7	37.748	.	voice	4F 4a- 4cc 4ee-
4V	E-:maj	38.285	.	voice	4E- 4g 4b-
=17	=17	=17	=17	=17	=17
2IV	D-:maj	38.822	newline	voice	2D- 2f 2a-
2V	E-:maj	39.902	.	voice	2E- 2g 2b-
=18	=18	=18	=18	=18	=18
2iii	C:min	40.983	.	voice	2C 2e- 2g
4vi7	F:min7	42.063	.	voice	4F 4a- 4cc 4ee-
4V	E-:maj	42.603	.	voice	4E- 4g 4b-
=19	=19	=19	=19	=19	=19
1ii	B-:min	43.143	newline	voice	1B- 1dd- 1ff
=20	=20	=20	=20	=20	=20
1V	E-:maj	45.32	.	voice	1E- 1g 1b-
=21	=21	=21	=21	=21	=21
1V	E-:maj	47.496	.	voice	1E- 1g 1b-
=22	=22	=22	=22	=22	=22
*>C_chorus	*>C_chorus	*>C_chorus	*>C_chorus	*>C_chorus	*>C_chorus
2I	A-:maj	49.672	newline	voice	2A- 2cc 2ee-
2ii	B-:min	50.734	.	voice	2B- 2dd- 2ff
=23	=23	=23	=23	=23	=23
2IV	D-:maj	51.796	.	voice	2D- 2f 2a-
2V	E-:maj	52.858	.	voice	2E- 2g 2b-
=24	=24	=24	=24	=24	=24
2I	A-:maj	53.92	newline	voice	2A- 2cc 2ee-
2ii	B-:min	54.979	.	voice	2B- 2dd- 2ff
=25	=25	=25	=25	=25	=25
2IV	D-:maj	56.038	.	voice	2D- 2f 2a-
2V	E-:maj	57.097	.	voice	2E- 2g 2b-
=26	=26	=26	=26	=26	=26
2I	A-:maj	58.156	newline	voice	2A- 2cc 2ee-
2ii	B-:min	59.205	.	voice	2B- 2dd- 2ff
=27	=27	=27	=27	=27	=27
2IV	D-:maj	60.255	.	voice	2D- 2f 2a-
2V	E-:maj	61.304	.	voice	2E- 2g 2b-
=28	=28	=28	=28	=28	=28
2I	A-:maj	62.353	newline	voice	2A- 2cc 2ee-
2ii	B-:min	63.425	.	voice	2B- 2dd- 2ff
=29	=29	=29	=29	=29	=29
1V	E-:maj	64.498	.	voice	1E- 1g 1b-
=30	=30	=30	=30	=30	=30
*>D_trans	*>D_trans	*>D_trans	*>D_trans	*>D_trans	*>D_trans
2I	A-:maj	66.644	newline	voice	2A- 2cc 2ee-
2IV	D-:maj	67.699	.	voice	2D- 2f 2a-
=31	=31	=31	=31	=31	=31
2ii	B-:min	68.753	.	voice	2B- 2dd- 2ff
2V	E-:maj	69.808	.	voice	2E- 2g 2b-
=32	=32	=32	=32	=32	=32
2I	A-:maj	70.863	newline	voice	2A- 2cc 2ee-
2IV	D-:maj	71.91	.	voice	2D- 2f 2a-
=33	=33	=33	=33	=33	=33
2ii	B-:min	72.956	.	voice	2B- 2dd- 2ff
2V	E-:maj	74.003	.	voice	2E- 2g 2b-
=34	=34	=34	=34	=34	=34
*>B_verse	*>B_verse	*>B_verse	*>B_verse	*>B_verse	*>B_verse
2I	A-:maj	75.05	newline	voice	2A- 2cc 2ee-
2Vf	E-:maj/4	76.096	.	voice	2E- 2g 2b-
=35	=35	=35	=35	=35	=35
2IVc	D-:maj(9)/5	77.143	.	voice	2d- 2f 2A-
2Vf	E-:maj/4	78.19	.	voice	2E- 2g 2b-
=36	=36	=36	=36	=36	=36
2vi7	F:min7	79.237	newline	voice	2F 2a- 2cc 2ee-
2iii	C:min	80.333	.	voice	2C 2e- 2g
=37	=37	=37	=37	=37	=37
2IV	D-:maj	81.429	.	voice	2D- 2f 2a-
2V	E-:maj	82.525	.	voice	2E- 2g 2b-
=38	=38	=38	=38	=38	=38
2I	A-:maj	83.621	newline	voice	2A- 2cc 2ee-
2Vf	E-:maj/4	84.682	.	voice	2E- 2g 2b-
=39	=39	=39	=39	=39	=39
2IVc	D-:maj(9)/5	85.743	.	voice	2d- 2f 2A-
2Vf	E-:maj/4	86.803	.	voice	2E- 2g 2b-
=40	=40	=40	=40	=40	=40
2vi7	F:min7	87.864	newline	voice	2F 2a- 2cc 2ee-
2iii	C:min	88.928	.	voice	2C 2e- 2g
=41	=41	=41	=41	=41	=41
2IV	D-:maj	89.992	.	voice	2D- 2f 2a-
2V	E-:maj	91.056	.	voice	2E- 2g 2b-
=42	=42	=42	=42	=42	=42
2IV	D-:maj	92.12	newline	voice	2D- 2f 2a-
2V	E-:maj	93.196	.	voice	2E- 2g 2b-
=43	=43	=43	=43	=43	=43
2iii	C:min	94.271	.	voice	2C 2e- 2g
4vi7	F:min7	95.347	.	voice	4F 4a- 4cc 4ee-
4V	E-:maj	95.885	.	voice	4E- 4g 4b-
=44	=44	=44	=44	=44	=44
2IV	D-:maj	96.423	newline	voice	2D- 2f 2a-
2V	E-:maj	97.503	.	voice	2E- 2g 2b-
=45	=45	=45	=45	=45	=45
2iii	C:min	98.583	.	voice	2C 2e- 2g
4vi7	F:min7	99.663	.	voice	4F 4a- 4cc 4ee-
4V	E-:maj	100.203	.	voice	4E- 4g 4b-
=46	=46	=46	=46	=46	=46
2IV	D-:maj	100.743	newline	voice	2D- 2f 2a-
2V	E-:maj	101.797	.	voice	2E- 2g 2b-
=47	=47	=47	=47	=47	=47
2iii	C:min	102.851	.	voice	2C 2e- 2g
4vi7	F:min7	103.904	.	voice	4F 4a- 4cc 4ee-
4V	E-:maj	104.431	.	voice	4E- 4g 4b-
=48	=48	=48	=48	=48	=48
1ii	B-:min	104.958	newline	voice	1B- 1dd- 1ff
=49	=49	=49	=49	=49	=49
1V	E-:maj	107.088	.	voice	1E- 1g 1b-
=50	=50	=50	=50	=50	=50
1V	E-:maj	109.218	.	voice	1E- 1g 1b-
=51	=51	=51	=51	=51	=51
*>C_chorus	*>C_chorus	*>C_chorus	*>C_chorus	*>C_chorus	*>C_chorus
2I	A-:maj	111.348	newline	voice	2A- 2cc 2ee-
2ii	B-:min	112.41	.	voice	2B- 2dd- 2ff
=52	=52	=52	=52	=52	=52
2IV	D-:maj	113.472	.	voice	2D- 2f 2a-
2V	E-:maj	114.534	.	voice	2E- 2g 2b-
=53	=53	=53	=53	=53	=53
2I	A-:maj	115.596	newline	voice	2A- 2cc 2ee-
2ii	B-:min	116.65	.	voice	2B- 2dd- 2ff
=54	=54	=54	=54	=54	=54
2IV	D-:maj	117.704	.	voice	2D- 2f 2a-
2V	E-:maj	118.758	.	voice	2E- 2g 2b-
=55	=55	=55	=55	=55	=55
2I	A-:maj	119.812	newline	voice	2A- 2cc 2ee-
2ii	B-:min	120.891	.	voice	2B- 2dd- 2ff
=56	=56	=56	=56	=56	=56
2IV	D-:maj	121.97	.	voice	2D- 2f 2a-
2V	E-:maj	123.049	.	voice	2E- 2g 2b-
=57	=57	=57	=57	=57	=57
2I	A-:maj	124.129	newline	voice	2A- 2cc 2ee-
2ii	B-:min	125.62	.	voice	2B- 2dd- 2ff
=58	=58	=58	=58	=58	=58
1V	E-:maj	127.112	.	voice	1E- 1g 1b-
=59	=59	=59	=59	=59	=59
1V	E-:maj	130.095	.	voice	1E- 1g 1b-
1r;	N	133.078	.	r	1r;
=60	=60	=60	=60	=60	=60
*>D_trans	*>D_trans	*>D_trans	*>D_trans	*>D_trans	*>D_trans
2I	A-:maj	136.062	newline	r	2A- 2cc 2ee-
2IV	D-:maj	137.089	.	r	2D- 2f 2a-
=61	=61	=61	=61	=61	=61
2ii	B-:min	138.116	.	r	2B- 2dd- 2ff
2V	E-:maj	139.143	.	r	2E- 2g 2b-
=62	=62	=62	=62	=62	=62
2I	A-:maj	140.17	newline	r	2A- 2cc 2ee-
2IV	D-:maj	141.23	.	r	2D- 2f 2a-
=63	=63	=63	=63	=63	=63
2ii	B-:min	142.289	.	r	2B- 2dd- 2ff
2V	E-:maj	143.349	.	r	2E- 2g 2b-
=64	=64	=64	=64	=64	=64
*>E_solo	*>E_solo	*>E_solo	*>E_solo	*>E_solo	*>E_solo
2I	A-:maj	144.409	newline	guitar	2A- 2cc 2ee-
2Vf	E-:maj/4	145.445	.	guitar	2E- 2g 2b-
=65	=65	=65	=65	=65	=65
2IVc	D-:maj(9)/5	146.48	.	guitar	2d- 2f 2A-
2Vf	E-:maj/4	147.516	.	guitar	2E- 2g 2b-
=66	=66	=66	=66	=66	=66
2vi7	F:min7	148.551	newline	guitar	2F 2a- 2cc 2ee-
2iii	C:min	149.597	.	guitar	2C 2e- 2g
=67	=67	=67	=67	=67	=67
2IV	D-:maj	150.642	.	guitar	2D- 2f 2a-
2V	E-:maj	151.688	.	guitar	2E- 2g 2b-
=68	=68	=68	=68	=68	=68
2vi7	F:min7	152.734	newline	guitar	2F 2a- 2cc 2ee-
2iii	C:min	153.771	.	guitar	2C 2e- 2g
=69	=69	=69	=69	=69	=69
2IV	D-:maj	154.807	.	guitar	2D- 2f 2a-
2V	E-:maj	155.844	.	guitar	2E- 2g 2b-
=70	=70	=70	=70	=70	=70
1ii	B-:min	156.881	newline	voice	1B- 1dd- 1ff
=71	=71	=71	=71	=71	=71
1V	E-:maj	158.954	.	voice	1E- 1g 1b-
=72	=72	=72	=72	=72	=72
1V	E-:maj	161.027	.	voice	1E- 1g 1b-
=73	=73	=73	=73	=73	=73
1V	E-:maj	163.1	newline	voice	1E- 1g 1b-
=74	=74	=74	=74	=74	=74
1V	E-:maj	165.169	.	voice	1E- 1g 1b-
=75	=75	=75	=75	=75	=75
*>D2_trans	*>D2_trans	*>D2_trans	*>D2_trans	*>D2_trans	*>D2_trans
2I	A-:maj	167.239	newline	voice	2A- 2cc 2ee-
2ii	B-:min	168.311	.	voice	2B- 2dd- 2ff
=76	=76	=76	=76	=76	=76
2IV	D-:maj	169.383	.	voice	2D- 2f 2a-
2V	E-:maj	170.455	.	voice	2E- 2g 2b-
=77	=77	=77	=77	=77	=77
2I	A-:maj	171.527	newline	voice	2A- 2cc 2ee-
2ii	B-:min	172.569	.	voice	2B- 2dd- 2ff
=78	=78	=78	=78	=78	=78
2IV	D-:maj	173.611	.	voice	2D- 2f 2a-
2V	E-:maj	174.653	.	voice	2E- 2g 2b-
=79	=79	=79	=79	=79	=79
*>C_chorus	*>C_chorus	*>C_chorus	*>C_chorus	*>C_chorus	*>C_chorus
2I	A-:maj	175.694	newline	voice	2A- 2cc 2ee-
2ii	B-:min	176.742	.	voice	2B- 2dd- 2ff
=80	=80	=80	=80	=80	=80
2IV	D-:maj	177.79	.	voice	2D- 2f 2a-
2V	E-:maj	178.837	.	voice	2E- 2g 2b-
=81	=81	=81	=81	=81	=81
2I	A-:maj	179.885	newline	voice	2A- 2cc 2ee-
2ii	B-:min	180.937	.	voice	2B- 2dd- 2ff
=82	=82	=82	=82	=82	=82
2IV	D-:maj	181.99	.	voice	2D- 2f 2a-
2V	E-:maj	183.043	.	voice	2E- 2g 2b-
=83	=83	=83	=83	=83	=83
2I	A-:maj	184.096	newline	voice	2A- 2cc 2ee-
2ii	B-:min	185.161	.	voice	2B- 2dd- 2ff
=84	=84	=84	=84	=84	=84
2IV	D-:maj	186.225	.	voice	2D- 2f 2a-
2V	E-:maj	187.29	.	voice	2E- 2g 2b-
=85	=85	=85	=85	=85	=85
2I	A-:maj	188.355	newline	voice	2A- 2cc 2ee-
2ii	B-:min	189.392	.	voice	2B- 2dd- 2ff
=86	=86	=86	=86	=86	=86
1V	E-:maj	190.43	.	voice	1E- 1g 1b-
=87	=87	=87	=87	=87	=87
*>C_chorus	*>C_chorus	*>C_chorus	*>C_chorus	*>C_chorus	*>C_chorus
2I	A-:maj	192.504	newline	voice	2A- 2cc 2ee-
2ii	B-:min	193.563	.	voice	2B- 2dd- 2ff
=88	=88	=88	=88	=88	=88
2IV	D-:maj	194.622	.	voice	2D- 2f 2a-
2V	E-:maj	195.681	.	voice	2E- 2g 2b-
=89	=89	=89	=89	=89	=89
2I	A-:maj	196.74	newline	voice	2A- 2cc 2ee-
2ii	B-:min	197.803	.	voice	2B- 2dd- 2ff
=90	=90	=90	=90	=90	=90
2IV	D-:maj	198.866	.	voice	2D- 2f 2a-
2V	E-:maj	199.929	.	voice	2E- 2g 2b-
=91	=91	=91	=91	=91	=91
2I	A-:maj	200.992	newline	voice	2A- 2cc 2ee-
2ii	B-:min	202.051	.	voice	2B- 2dd- 2ff
=92	=92	=92	=92	=92	=92
2IV	D-:maj	203.11	.	voice	2D- 2f 2a-
2V	E-:maj	204.169	.	voice	2E- 2g 2b-
=93	=93	=93	=93	=93	=93
2I	A-:maj	205.228	newline	voice	2A- 2cc 2ee-
2ii	B-:min	206.272	.	voice	2B- 2dd- 2ff
=94	=94	=94	=94	=94	=94
1V	E-:maj	207.317	.	voice	1E- 1g 1b-
=95	=95	=95	=95	=95	=95
*>D_coda	*>D_coda	*>D_coda	*>D_coda	*>D_coda	*>D_coda
2I	A-:maj	209.406	newline	voice	2A- 2cc 2ee-
2IV	D-:maj	210.454	.	voice	2D- 2f 2a-
=96	=96	=96	=96	=96	=96
2ii	B-:min	211.503	.	voice	2B- 2dd- 2ff
2V	E-:maj	212.552	.	voice	2E- 2g 2b-
=97	=97	=97	=97	=97	=97
2I	A-:maj	213.601	newline	voice	2A- 2cc 2ee-
2IV	D-:maj	214.638	.	voice	2D- 2f 2a-
=98	=98	=98	=98	=98	=98
2ii	B-:min	215.674	.	voice	2B- 2dd- 2ff
2V	E-:maj	216.711	.	voice	2E- 2g 2b-
=99	=99	=99	=99	=99	=99
2I	A-:maj	217.747	newline	voice	2A- 2cc 2ee-
2IV	D-:maj	218.782	.	voice	2D- 2f 2a-
=100	=100	=100	=100	=100	=100
2ii	B-:min	219.817	.	voice	2B- 2dd- 2ff
2V	E-:maj	220.852	.	voice	2E- 2g 2b-
=101	=101	=101	=101	=101	=101
2I	A-:maj	221.886	newline	voice	2A- 2cc 2ee-
2IV	D-:maj	222.913	.	voice	2D- 2f 2a-
=102	=102	=102	=102	=102	=102
2ii	B-:min	223.94	.	voice	2B- 2dd- 2ff
2V	E-:maj	224.967	.	voice	2E- 2g 2b-
=103	=103	=103	=103	=103	=103
2I	A-:maj	225.994	newline	voice	2A- 2cc 2ee-
2IV	D-:maj	227.015	.	voice	2D- 2f 2a-
=104	=104	=104	=104	=104	=104
2ii	B-:min	228.036	.	voice	2B- 2dd- 2ff
2V	E-:maj	229.058	.	voice	2E- 2g 2b-
=105	=105	=105	=105	=105	=105
2I	A-:maj	230.079	newline	voice	2A- 2cc 2ee-
2IV	D-:maj	231.176	.	voice	2D- 2f 2a-
=106	=106	=106	=106	=106	=106
2ii	B-:min	232.272	.	voice	2B- 2dd- 2ff
2V	E-:maj	233.369	.	voice	2E- 2g 2b-
=107	=107	=107	=107	=107	=107
4I	A-:maj	234.465	newline	voice	4A- 4cc 4ee-
4IV	D-:maj	235.013	.	voice	4D- 4f 4a-
2V	E-:maj	235.562	.	voice	2E- 2g 2b-
=108	=108	=108	=108	=108	=108
4IV	D-:maj	236.658	.	voice	4D- 4f 4a-
4V	E-:maj	237.206	.	voice	4E- 4g 4b-
2I	A-:maj	237.754	.	voice	2A- 2cc 2ee-
1r;	N	265.437	.	r	1r;
1r;	N	321.875	.	r	1r;
1r;	N	322.691	.	r	1r;
*-	*-	*-	*-	*-	*-
!!!OTL: Don't Treat Me Bad
!!!COC: Firehouse
!!!BillboardChartDate: 1991/08/03, 1991/03/09
!!!BillboardPeak: 19, 19
!!!BillboardWeeksOnChart: 23, 23
!!!SampleTargetRank: 90, 85
!!!SampleActualRank: 88, 86
!!!SampleID#: 258, 349
!!!RDF**harmony: **recip + pitch class of root + harmonic quality
!!!RDF**harte: Chris Harte's syntax, used by MIREX
!!!RDF**phrase: newline = linebreak in original McGill transcription
!!!RDF**timestamp: McGill audio timestamp in seconds
!!!RDF**leadinstrument: original McGill primary instrumentation annotation
!!!RDT: 2017/01/12/
!!!ENC: Nathaniel Condit-Schultz
!!!EST: Awating manual error checking and editing.
